assets/svg/bullhorn-o.svg

<?xml version="1.0" encoding="UTF-8"?>
<svg width="1000px" height="1000px" viewBox="0 0 1000 1000" version="1.1" xmlns="http://www.w3.org/2000/svg" xmlns:xlink="http://www.w3.org/1999/xlink">
    <!-- Generator: sketchtool 52.4 (67378) - http://www.bohemiancoding.com/sketch -->
    <title>bullhorn-o</title>
    <desc>Created with sketchtool.</desc>
    <g id="新版图标" stroke="none" stroke-width="1" fill="none" fill-rule="evenodd">
        <g id="bullhorn-o" fill="#323233" fill-rule="nonzero">
            <g id="直角-推广店铺-线">
                <path d="M777.777778,151.28776 L459.198024,333.333333 L222.222222,333.333333 L222.222222,666.666667 L459.198024,666.666667 L777.777778,848.71224 L777.777778,151.28776 Z M833.333333,151.28776 L833.333333,848.71224 C833.333333,879.394726 808.460264,904.267796 777.777778,904.267796 C768.109615,904.267796 758.60882,901.744722 750.214503,896.94797 L444.444444,722.222222 L222.222222,722.222222 C191.539736,722.222222 166.666667,697.349153 166.666667,666.666667 L166.666667,333.333333 C166.666667,302.650847 191.539736,277.777778 222.222222,277.777778 L444.444444,277.777778 L750.214503,103.05203 C776.854362,87.8292537 810.790732,97.0846274 826.013508,123.724486 C830.81026,132.118802 833.333333,141.619597 833.333333,151.28776 Z" id="Path-21"></path>
                <path d="M378.877995,888.888889 L432.233117,888.888889 L398.899783,722.222222 L345.544661,722.222222 L378.877995,888.888889 Z M444.444444,666.666667 L444.444444,277.777778 L500,277.777778 L500,722.222222 L455.555556,722.222222 L486.709821,877.993548 C492.727151,908.080201 473.21511,937.348263 443.128457,943.365593 C439.541058,944.083073 435.89156,944.444444 432.233117,944.444444 L378.877995,944.444444 C352.395716,944.444444 329.594893,925.752241 324.40129,899.78423 L277.777778,666.666667 L444.444444,666.666667 Z" id="Combined-Shape"></path>
            </g>
        </g>
    </g>
</svg>

<svg width="1000" height="1000" xmlns="http://www.w3.org/2000/svg"><g fill="#323233" fill-rule="nonzero"><path d="M777.778 151.288l-318.58 182.045H222.222v333.334h236.976l318.58 182.045V151.288zm55.555 0v697.424c0 30.683-24.873 55.556-55.555 55.556a55.556 55.556 0 0 1-27.563-7.32l-305.77-174.726H222.221c-30.682 0-55.555-24.873-55.555-55.555V333.333c0-30.682 24.873-55.555 55.555-55.555h222.222l305.77-174.726c26.64-15.223 60.577-5.967 75.8 20.672a55.556 55.556 0 0 1 7.32 27.564z"/><path d="M378.878 888.889h53.355L398.9 722.222h-53.355l33.333 166.667zm65.566-222.222v-388.89H500v444.445h-44.444l31.154 155.772c6.017 30.086-13.495 59.354-43.582 65.372a55.556 55.556 0 0 1-10.895 1.078h-53.355c-26.482 0-49.283-18.692-54.477-44.66l-46.623-233.117h166.666z"/></g></svg>
